X:1
T:Gretton, CMD
T:Gretton, CMD
T:Robert Brown-Borthwick, 1874
T:Public Domain Courtesy of the Cyber Hymnal™
C:Robert Brown-Borthwick, 1874
Z:Public Domain
Z:Courtesy of the Cyber Hymnal™
%%score ( 1 2 ) ( 3 4 )
L:1/8
Q:1/4=108
M:4/4
K:F
V:1 treble 
V:2 treble 
V:3 bass 
V:4 bass 
V:1
 [CF]2 | [CF]2 [DA]2 [Ec]2 [Fd]2 | [Fc]2 [EB]2 [FA]2 [FA]2 | G2 [Gc]2 [Fc]2 [F=B]2 | [Ec]6 [Fc]2 | %5
 [Fd]2 [Fc]2 [FB]2 [Ec]2 | [FA]2 [DF]2 B2 [FA]2 | D2 [DG]2 [CF]2 [CE]2 | [CF]6 [CA]2 | %9
 [^CA]2 [Dd]2 [E^c]2 [Dd]2 | [DB]2 [DG]2 [EA]2 [Dd]2 | [GB]2 [FA]2 G2 [DG]2 | [EA]6 [EA]2 | %13
 [DA]2 [DF]2 B2 [FA]2 | D2 [DG]2 [CE]2 [CF]2 | [EB]2 [FA]2 [FG]2 [EG]2 | F6 |] %17
V:2
 x2 | x8 | x8 | G2 x6 | x8 | x8 | x4 (DE) x2 | D2 x6 | x8 | x8 | x8 | x4 G2 x2 | x8 | x4 (DE) x2 | %14
 D2 x6 | x8 | F6 |] %17
V:3
 [F,A,]2 | [F,A,]2 [D,F,]2 [C,G,]2 (B,A,) | [C,G,]2 [C,C]2 [F,C]2 [F,C]2 | %3
 [F,=B,]2 [E,C]2 [D,D]2 [G,D]2 | [C,C]6 [F,A,]2 | B,2 [A,C]2 [G,D]2 [C,C]2 | %6
 [D,F,]2 [D,A,]2 [G,,B,]2 [A,,C]2 | [B,,B,]2 [B,,G,]2 [C,A,]2 [C,B,]2 | [F,,A,]6 [F,A,]2 | %9
 [E,G,]2 [D,F,]2 [A,,A,]2 [F,A,]2 | [G,B,]2 [B,D]2 [A,^C]2 [F,D]2 | [G,D]2 [A,D]2 [B,D]2 [B,D]2 | %12
 [A,^C]6 (A,G,) | [D,F,]2 [D,A,]2 [G,,B,]2 [A,,C]2 | [B,,B,]2 (B,A,) [C,G,]2 A,2 | %15
 [G,B,]2 [F,C]2 [B,,D]2 (CB,) | [F,,A,]6 |] %17
V:4
 x2 | x6 B,,2 | x8 | x8 | x8 | B,2 x6 | x8 | x8 | x8 | x8 | x8 | x8 | x6 ^C,2 | x8 | %14
 x2 G,,2 x A,2 x | x6 C,2 | x6 |] %17

